public/_brand/React Router Brand Assets/React Router Wordmark/Dark.svg

<svg width="960" height="228" viewBox="0 0 960 228" fill="none" xmlns="http://www.w3.org/2000/svg">
<g clip-path="url(#clip0_171_2183)">
<path d="M282.202 227.012C232.221 227.012 198.075 193.218 198.075 144.643C198.075 96.0686 232.221 62.2744 282.202 62.2744C332.183 62.2744 366.68 96.4202 366.68 144.643C366.68 192.866 332.183 227.012 282.202 227.012ZM282.202 188.647C304.38 188.647 315.293 170.688 315.293 144.643C315.293 118.598 304.38 100.639 282.202 100.639C260.024 100.639 249.463 118.598 249.463 144.643C249.463 170.688 259.673 188.647 282.202 188.647Z" fill="white"/>
<path d="M637.971 184.855C625.607 184.855 619.074 179.039 619.074 165.226V97.9743H661.965V62.393H619.074V1.2207H583.009L575.597 34.0774C571.979 47.5687 568.669 55.889 559.586 60.1664C558.546 60.6498 555.954 61.3676 553.698 61.8803C551.867 62.2905 550.006 62.4955 548.131 62.4955H531.3V62.5834H508.331C493.565 62.5834 481.583 74.5513 481.583 89.3316V146.065C481.583 171.056 472.076 186.891 453.077 186.891C434.078 186.891 427.032 174.571 427.032 152.394V62.5834H376.363V164.713C376.363 198.156 389.737 227.013 431.968 227.013C452.022 227.013 467.74 219.118 477.188 205.934C478.565 204.015 481.583 205.026 481.583 207.37V222.78H532.604V109.708C532.604 103.218 537.863 97.9596 544.352 97.9596H567.438V179.391C567.438 215.749 591.066 227.013 617.243 227.013C638.322 227.013 652.136 221.93 664.133 212.833V178.307C654.319 182.672 645.954 184.855 637.956 184.855H637.971Z" fill="white"/>
<path d="M832.049 171.406C823.949 206.958 796.146 227.027 755.306 227.027C705.677 227.027 670.476 196.748 670.476 147.119C670.476 97.4895 706.38 62.2891 754.251 62.2891C805.99 62.2891 833.104 97.8411 833.104 140.439V149.126H720.457C717.893 177.763 737.347 188.662 757.064 188.662C774.671 188.662 785.57 181.968 791.209 167.539L832.049 171.406ZM784.178 124.267C783.123 108.784 773.265 99.2327 753.9 99.2327C733.479 99.2327 723.973 107.714 721.16 124.267H784.163H784.178Z" fill="white"/>
<path d="M956.269 112.211C948.169 107.641 940.434 105.868 929.521 105.868C908.398 105.868 894.321 117.836 894.321 144.936V222.778H843.637V62.5821H894.321V84.1008C894.321 85.5949 896.313 86.0637 896.987 84.7306C904.37 69.9942 919.106 58.3633 937.622 58.3633C947.129 58.3633 955.229 61.1758 959.448 64.7061L956.284 112.226L956.269 112.211Z" fill="white"/>
<path d="M262.309 41.0794V31.1916H229.687V41.0794H220.4V2.6416H255.512C270.498 2.6416 271.552 3.57911 271.552 16.9239C271.552 22.549 270.38 24.0578 267.568 25.4933L265.048 26.7824L267.553 28.1008C270.542 29.6682 271.552 30.1955 271.552 39.1018V41.0794H262.324H262.309ZM229.687 23.7941H262.309V10.0538H229.687V23.7794V23.7941Z" fill="white"/>
<path d="M303.208 2.6416H345.63V10.0831H305.273V18.7403H344.561V25.0099H305.273V33.6818H345.645V41.0354L303.222 41.0794C299.077 41.0794 295.722 37.7248 295.722 33.594V10.1417C295.722 6.01076 299.077 2.65625 303.208 2.65625V2.6416Z" fill="white"/>
<path d="M404.327 41.0794L401.163 34.2678H375.703L372.539 41.0794H363.677L379.981 5.93752C380.904 3.93067 382.94 2.6416 385.137 2.6416H391.685C393.897 2.6416 395.918 3.93067 396.841 5.93752L413.145 41.0794H404.283H404.327ZM388.448 10.2881C387.466 10.2881 386.602 10.8448 386.177 11.7383L378.619 28.0129H398.262L390.718 11.7383C390.308 10.8448 389.429 10.2881 388.448 10.2881Z" fill="white"/>
<path d="M455.89 42.2356C431.207 42.2356 430.24 42.2356 430.24 21.8595C430.24 1.4834 431.207 1.49805 455.89 1.49805C478.009 1.49805 480.69 2.4209 481.319 13.5245H472.252V8.91021H439.234V34.8235H472.252V30.2385H481.319C480.704 41.3128 478.009 42.2356 455.89 42.2356Z" fill="white"/>
<path d="M522.042 41.0794V8.92582H500.89V2.6416H552.043V8.92582H530.89V41.0794H522.042Z" fill="white"/>
<path d="M140.419 222.515C135.848 216.539 133.036 202.828 131.278 179.976C129.52 154.663 118.622 149.038 98.5825 149.038H58.8556V222.53H0.129639V1H111.942C169.247 1 197.738 28.0705 197.738 71.3276C197.738 103.672 177.699 124.765 150.629 128.296C173.48 132.866 186.84 145.874 189.301 171.538C192.465 204.585 193.52 214.429 200.902 222.515H140.419ZM101.395 102.968C126.708 102.968 139.364 96.6403 139.364 76.2495C139.364 58.3197 126.708 48.8275 101.395 48.8275H58.8556V102.983H101.395V102.968Z" fill="white"/>
</g>
<defs>
<clipPath id="clip0_171_2183">
<rect width="959.303" height="226.012" fill="white" transform="translate(0.129639 1)"/>
</clipPath>
</defs>
</svg>

<svg width="960" height="228" fill="none" xmlns="http://www.w3.org/2000/svg"><g clip-path="url(#a)" fill="#fff"><path d="M282.202 227.012c-49.981 0-84.127-33.794-84.127-82.369 0-48.574 34.146-82.369 84.127-82.369 49.981 0 84.478 34.146 84.478 82.369s-34.497 82.369-84.478 82.369Zm0-38.365c22.178 0 33.091-17.959 33.091-44.004 0-26.045-10.913-44.004-33.091-44.004s-32.739 17.959-32.739 44.004c0 26.045 10.21 44.004 32.739 44.004Zm355.769-3.792c-12.364 0-18.897-5.816-18.897-19.629V97.974h42.891V62.393h-42.891V1.221h-36.065l-7.412 32.856c-3.618 13.492-6.928 21.812-16.011 26.09-1.04.483-3.632 1.2-5.888 1.713-1.831.41-3.692.615-5.567.615H531.3v.088h-22.969c-14.766 0-26.748 11.968-26.748 26.749v56.733c0 24.991-9.507 40.826-28.506 40.826-18.999 0-26.045-12.32-26.045-34.497v-89.81h-50.669v102.129c0 33.443 13.374 62.3 55.605 62.3 20.054 0 35.772-7.895 45.22-21.079 1.377-1.919 4.395-.908 4.395 1.436v15.41h51.021V109.708c0-6.49 5.259-11.748 11.748-11.748h23.086v81.431c0 36.358 23.628 47.622 49.805 47.622 21.079 0 34.893-5.083 46.89-14.18v-34.526c-9.814 4.365-18.179 6.548-26.177 6.548h.015Zm194.078-13.449c-8.1 35.552-35.903 55.621-76.743 55.621-49.629 0-84.83-30.279-84.83-79.908 0-49.63 35.904-84.83 83.775-84.83 51.739 0 78.853 35.552 78.853 78.15v8.687H720.457c-2.564 28.637 16.89 39.536 36.607 39.536 17.607 0 28.506-6.694 34.145-21.123l40.84 3.867Zm-47.871-47.139c-1.055-15.483-10.913-25.034-30.278-25.034-20.421 0-29.927 8.481-32.74 25.034h63.018Zm172.091-12.056c-8.1-4.57-15.835-6.343-26.748-6.343-21.123 0-35.2 11.968-35.2 39.068v77.842h-50.684V62.582h50.684v21.519c0 1.494 1.992 1.963 2.666.63 7.383-14.737 22.119-26.368 40.635-26.368 9.507 0 17.607 2.813 21.826 6.343l-3.164 47.52-.015-.015ZM262.309 41.08v-9.888h-32.622v9.887H220.4V2.642h35.112c14.986 0 16.04.937 16.04 14.282 0 5.625-1.172 7.134-3.984 8.57l-2.52 1.288 2.505 1.319c2.989 1.567 3.999 2.095 3.999 11v1.978h-9.243Zm-32.622-17.286h32.622v-13.74h-32.622v13.74Zm73.521-21.152h42.422v7.441h-40.357v8.657h39.288v6.27h-39.288v8.672h40.372v7.353l-42.423.044c-4.145 0-7.5-3.354-7.5-7.485V10.142a7.49 7.49 0 0 1 7.486-7.486v-.014ZM404.327 41.08l-3.164-6.812h-25.46l-3.164 6.811h-8.862l16.304-35.141a5.697 5.697 0 0 1 5.156-3.296h6.548a5.68 5.68 0 0 1 5.156 3.296l16.304 35.141h-8.862.044Zm-15.879-30.792c-.982 0-1.846.557-2.271 1.45l-7.558 16.275h19.643l-7.544-16.275a2.48 2.48 0 0 0-2.27-1.45Z"/><path d="M455.89 42.236c-24.683 0-25.65 0-25.65-20.376 0-20.377.967-20.362 25.65-20.362 22.119 0 24.8.923 25.429 12.027h-9.067V8.91h-33.018v25.914h33.018v-4.585h9.067c-.615 11.074-3.31 11.997-25.429 11.997Zm66.152-1.156V8.925H500.89V2.642h51.153v6.284H530.89v32.153h-8.848ZM140.419 222.515c-4.571-5.976-7.383-19.687-9.141-42.539-1.758-25.313-12.656-30.938-32.695-30.938H58.855v73.492H.13V1h111.812c57.305 0 85.796 27.07 85.796 70.328 0 32.344-20.039 53.437-47.109 56.968 22.851 4.57 36.211 17.578 38.672 43.242 3.164 33.047 4.219 42.891 11.601 50.977h-60.483Zm-39.024-119.547c25.313 0 37.969-6.328 37.969-26.719 0-17.93-12.656-27.421-37.969-27.421h-42.54v54.155h42.54v-.015Z"/></g><defs><clipPath id="a"><path fill="#fff" transform="translate(.13 1)" d="M0 0h959.303v226.012H0z"/></clipPath></defs></svg>
